resources/svg/major-inventory.svg

<svg xmlns="http://www.w3.org/2000/svg" viewBox="0 0 20 20" fill="currentColor"><path d="M19.838 5.455a1 1 0 0 0-.432-.369l-9-4a.999.999 0 0 0-.812 0l-9 4a1 1 0 0 0-.594.914v14h2v-13.35l8-3.556 8 3.556v13.35h2v-14a1 1 0 0 0-.162-.545zm-7.838 2.545h4v4h-4v-4zm-2 2h-6v10h6v-10zm6 4h-4v6h4v-6z"/></svg>

<svg xmlns="http://www.w3.org/2000/svg" viewBox="0 0 20 20" fill="currentColor"><path d="M19.838 5.455a1 1 0 00-.432-.369l-9-4a.999.999 0 00-.812 0l-9 4A1 1 0 000 6v14h2V6.65l8-3.556 8 3.556V20h2V6a1 1 0 00-.162-.545zM12 8h4v4h-4V8zm-2 2H4v10h6V10zm6 4h-4v6h4v-6z" fill="#5C5F62"/></svg>
